X:1
T:Colonel Baird. 2voices. Dix.08
T:Colonel Baird. 2voices. Dix.08
T:Mrs Oswald
C:Mrs Oswald
%%score 1 2
L:1/8
Q:3/8=100
M:6/8
K:F
V:1 treble 
V:2 treble 
V:1
|: c | (cf).c (cf).d | c2 =c c2 d | (cA).F (BG).E | F2 F F2 c | (cf).c (cf).d | c2 =c c2 d | %7
 (cA).F (BG).E | F3 F2 :: B |{AB} c2 c AFA |{c} B2 B GEG | (FG).A (FG).A |{c} B2 A G2 B | %14
{AB} c2 c AFA |"^tr" B2 B GEG | F>GA BGE | F3 F2 :| %18
V:2
|: z | (F,A,).C F,B,.D | G,A,C G,A,C | G,A,C C,G,C | F,A,C F,3 | (F,A,).C F,B,.D | G,A,C G,A,C | %7
 G,A,C C,G,C | F,C,A,, F,,2 :: z | F,A,C F,A,C | E,G,C C,G,C | G,A,C G,A,C | C,G,C C,G,C | %14
 F,A,C F,A,C | E,G,C C,G,C | F,A,C C,G,C | F,C,A,, F,,2 :| %18

